SVG_Azure_All/Virtual WAN Gateway.svg

<?xml version="1.0" encoding="UTF-8" standalone="no"?>
<!-- Generated by Microsoft Visio, SVG Export Virtual WAN Gateway.svg Page-1 -->

<svg
   xmlns:dc="http://purl.org/dc/elements/1.1/"
   xmlns:cc="http://creativecommons.org/ns#"
   xmlns:rdf="http://www.w3.org/1999/02/22-rdf-syntax-ns#"
   xmlns:svg="http://www.w3.org/2000/svg"
   xmlns="http://www.w3.org/2000/svg"
   xmlns:sodipodi="http://sodipodi.sourceforge.net/DTD/sodipodi-0.dtd"
   xmlns:inkscape="http://www.inkscape.org/namespaces/inkscape"
   width="0.78736186in"
   height="0.75775176in"
   viewBox="0 0 56.689942 54.558074"
   xml:space="preserve"
   class="st4"
   version="1.1"
   id="svg43"
   sodipodi:docname="Virtual WAN Gateway.svg"
   style="font-size:12px;overflow:visible;color-interpolation-filters:sRGB;fill:none;fill-rule:evenodd;stroke-linecap:square;stroke-miterlimit:3"
   inkscape:version="0.92.5 (2060ec1f9f, 2020-04-08)"><metadata
   id="metadata47"><rdf:RDF><cc:Work
       rdf:about=""><dc:format>image/svg+xml</dc:format><dc:type
         rdf:resource="http://purl.org/dc/dcmitype/StillImage" /></cc:Work></rdf:RDF></metadata><sodipodi:namedview
   pagecolor="#ffffff"
   bordercolor="#666666"
   borderopacity="1"
   objecttolerance="10"
   gridtolerance="10"
   guidetolerance="10"
   inkscape:pageopacity="0"
   inkscape:pageshadow="2"
   inkscape:window-width="640"
   inkscape:window-height="480"
   id="namedview45"
   showgrid="false"
   inkscape:zoom="1.4714303"
   inkscape:cx="37.795366"
   inkscape:cy="35.760891"
   inkscape:window-x="0"
   inkscape:window-y="0"
   inkscape:window-maximized="0"
   inkscape:current-layer="svg43" />
	<style
   type="text/css"
   id="style2">
	<![CDATA[
		.st1 {fill:url(#grad0-5);stroke:none;stroke-linecap:butt;stroke-width:32.4095}
		.st2 {fill:#ffffff;stroke:none;stroke-linecap:butt;stroke-width:32.4095}
		.st3 {fill:url(#grad0-11);stroke:none;stroke-linecap:butt;stroke-width:32.4095}
		.st4 {fill:none;fill-rule:evenodd;font-size:12px;overflow:visible;stroke-linecap:square;stroke-miterlimit:3}
	]]>
	</style>

	<defs
   id="Patterns_And_Gradients">
		<linearGradient
   id="grad0-5"
   x1="0"
   y1="95.440877"
   x2="47.656505"
   y2="95.440877"
   gradientTransform="scale(1.1895543,0.840651)"
   gradientUnits="userSpaceOnUse">
			<stop
   offset="0"
   stop-color="#0078d4"
   stop-opacity="1"
   id="stop4" />
			<stop
   offset="0.82"
   stop-color="#5ea0ef"
   stop-opacity="1"
   id="stop6" />
		</linearGradient>
		<linearGradient
   id="grad0-11"
   x1="-0.70505475"
   y1="91.306294"
   x2="29.972381"
   y2="91.306294"
   gradientTransform="scale(1.0020459,0.99795824)"
   gradientUnits="userSpaceOnUse">
			<stop
   offset="0"
   stop-color="#6f4bb2"
   stop-opacity="1"
   id="stop9" />
			<stop
   offset="0.19"
   stop-color="#7854b8"
   stop-opacity="1"
   id="stop11" />
			<stop
   offset="0.51"
   stop-color="#926bc9"
   stop-opacity="1"
   id="stop13" />
			<stop
   offset="0.91"
   stop-color="#bb90e4"
   stop-opacity="1"
   id="stop15" />
			<stop
   offset="1"
   stop-color="#c69aeb"
   stop-opacity="1"
   id="stop17" />
		</linearGradient>
	</defs>
	<g
   id="g41"
   transform="translate(-32.409565,-32.408069)">
		<title
   id="title21">Page-1</title>
		<g
   id="group208-1"
   transform="translate(32.4095,-34.0157)">
			<title
   id="title23">Virtual WAN Gateway</title>
			<g
   id="shape209-2"
   transform="translate(0,-13.8087)">
				<title
   id="title25">path22</title>
				<path
   d="M 56.69,107.72 A 12.7559,12.7039 -180 0 0 45.64,95.52 16.063,15.9975 -180 0 0 29.1,80.24 16.4724,16.4053 -180 0 0 13.35,90.94 15.1811,15.1192 -180 0 0 0,105.49 15.4331,15.3702 -180 0 0 15.97,120.27 h 1.38 25.86 a 2.45669,2.44668 -180 0 0 0.7,0 12.8819,12.8294 -180 0 0 12.78,-12.55 z"
   class="st1"
   id="path27"
   inkscape:connector-curvature="0"
   style="fill:url(#grad0-5);stroke:none;stroke-width:32.40950012;stroke-linecap:butt" />
			</g>
			<g
   id="shape210-6"
   transform="translate(17.9681)">
				<title
   id="title30">f5bcc86d-e9e9-4a14-9536-944056d</title>
				<path
   d="M 10.38,120.29 A 14.6772,14.6173 0 1 1 25.06,105.67 14.6772,14.6173 0 0 1 10.38,120.29 Z"
   class="st2"
   id="path32"
   inkscape:connector-curvature="0"
   style="fill:#ffffff;stroke:none;stroke-width:32.40950012;stroke-linecap:butt" />
			</g>
			<g
   id="shape211-8"
   transform="translate(13.7464,-0.752825)">
				<title
   id="title35">path25</title>
				<path
   d="M 14.6,91.12 A 15.3701,15.3074 -180 0 0 5.81,118.94 15.3701,15.3074 -180 1 0 14.6,91.12 Z m 13.98,15.31 a 11.874,11.8256 0 0 1 0,1.82 16.7559,16.6876 -180 0 0 -2.45,-1.01 2.89764,2.88582 -180 0 0 -4.1,-2.32 16.7559,16.6876 -180 0 0 -7.87,-6.27 3.14961,3.13677 -180 0 0 -0.79,-1.51 15.2756,15.2133 0 0 1 6.05,-3.83 14.0472,13.99 0 0 1 9.16,13.12 z m -5.63,11.16 a 13.7638,13.7077 0 0 1 -7.28,2.7 15.0551,14.9937 0 0 1 -4.91,-5.43 2.77165,2.76035 -180 0 0 0.91,-1.28 2.83465,2.82309 -180 0 0 -0.22,-2.42 15.748,15.6838 0 0 1 8.79,-3.13 2.89764,2.88582 -180 0 0 1.86,2.25 3.33858,3.32497 -180 0 0 0.72,0.16 15.748,15.6838 0 0 1 0.13,7.15 z M 10.13,101.91 a 2.89764,2.88582 -180 0 0 3.68,-1.73 15.0866,15.0251 0 0 1 7.09,5.62 3.59055,3.57591 -180 0 0 -0.38,0.69 17.2283,17.1581 -180 0 0 -10.11,3.64 l -0.44,-0.22 a 2.33071,2.32121 -180 0 0 -0.88,-0.19 15.2441,15.1819 0 0 1 1.04,-7.94 z m -2.4,13.42 h 0.26 a 2.64567,2.63488 -180 0 0 1.48,0 16.189,16.123 -180 0 0 3.87,4.96 13.9213,13.8645 0 0 1 -6.9,-2.54 16.126,16.0602 0 0 1 1.29,-2.54 z M 14.6,92.47 a 15.4331,15.3702 0 0 1 2.43,0.22 16.2835,16.2171 -180 0 0 -5.01,3.67 2.89764,2.88582 -180 0 0 -3.15,1.19 H 8.05 A 17.3543,17.2836 -180 0 0 3.29,98.24 14.1102,14.0527 0 0 1 14.6,92.47 Z M 0.62,106.43 a 13.8898,13.8331 0 0 1 1.51,-6.28 15.5591,15.4956 0 0 1 6.3,-1.19 3.14961,3.13677 -180 0 0 0.69,2.04 16.7559,16.6876 -180 0 0 -1.42,9.13 2.89764,2.88582 -180 0 0 -1.45,1.6 2.96063,2.94856 -180 0 0 0.35,2.66 17.3858,17.3149 -180 0 0 -1.32,2.51 13.8898,13.8331 0 0 1 -4.66,-10.47 z m 24,9.72 c 0,-0.66 0,-1.32 0,-2.01 a 16.9449,16.8758 -180 0 0 -0.35,-4.01 2.77165,2.76035 -180 0 0 1.48,-1.45 16.5354,16.468 0 0 1 2.42,1.04 13.7638,13.7077 0 0 1 -3.55,6.43 z"
   class="st3"
   id="path37"
   inkscape:connector-curvature="0"
   style="fill:url(#grad0-11);stroke:none;stroke-width:32.40950012;stroke-linecap:butt" />
			</g>
		</g>
	</g>
</svg>

<?xml version="1.0" encoding="UTF-8" standalone="no"?>
<!DOCTYPE svg PUBLIC "-//W3C//DTD SVG 1.1//EN" "http://www.w3.org/Graphics/SVG/1.1/DTD/svg11.dtd">
<!-- Generated by Microsoft Visio, SVG Export Virtual WAN Gateway.svg Page-1 -->
<svg xmlns="http://www.w3.org/2000/svg" xmlns:xlink="http://www.w3.org/1999/xlink" xmlns:ev="http://www.w3.org/2001/xml-events"
		width="1.68767in" height="1.67071in" viewBox="0 0 121.512 120.291" xml:space="preserve" color-interpolation-filters="sRGB"
		class="st4">
	<style type="text/css">
	<![CDATA[
		.st1 {fill:url(#grad0-5);stroke:none;stroke-linecap:butt;stroke-width:32.4095}
		.st2 {fill:#ffffff;stroke:none;stroke-linecap:butt;stroke-width:32.4095}
		.st3 {fill:url(#grad0-11);stroke:none;stroke-linecap:butt;stroke-width:32.4095}
		.st4 {fill:none;fill-rule:evenodd;font-size:12px;overflow:visible;stroke-linecap:square;stroke-miterlimit:3}
	]]>
	</style>

	<defs id="Patterns_And_Gradients">
		<linearGradient id="grad0-5" x1="0" y1="0" x2="1" y2="0" gradientTransform="rotate(-90 0.5 0.5)">
			<stop offset="0" stop-color="#0078d4" stop-opacity="1"/>
			<stop offset="0.82" stop-color="#5ea0ef" stop-opacity="1"/>
		</linearGradient>
		<linearGradient id="grad0-11" x1="0" y1="0" x2="1" y2="0" gradientTransform="rotate(-90 0.5 0.5)">
			<stop offset="0" stop-color="#6f4bb2" stop-opacity="1"/>
			<stop offset="0.19" stop-color="#7854b8" stop-opacity="1"/>
			<stop offset="0.51" stop-color="#926bc9" stop-opacity="1"/>
			<stop offset="0.91" stop-color="#bb90e4" stop-opacity="1"/>
			<stop offset="1" stop-color="#c69aeb" stop-opacity="1"/>
		</linearGradient>
	</defs>
	<g>
		<title>Page-1</title>
		<g id="group208-1" transform="translate(32.4095,-34.0157)">
			<title>Virtual WAN Gateway</title>
			<g id="shape209-2" transform="translate(0,-13.8087)">
				<title>path22</title>
				<path d="M56.69 107.72 A12.7559 12.7039 -180 0 0 45.64 95.52 A16.063 15.9975 -180 0 0 29.1 80.24 A16.4724 16.4053
							 -180 0 0 13.35 90.94 A15.1811 15.1192 -180 0 0 -0 105.49 A15.4331 15.3702 -180 0 0 15.97 120.27 L17.35
							 120.27 L43.21 120.27 A2.45669 2.44668 -180 0 0 43.91 120.27 A12.8819 12.8294 -180 0 0 56.69 107.72 Z"
						class="st1"/>
			</g>
			<g id="shape210-6" transform="translate(17.9681,-2.70006E-13)">
				<title>f5bcc86d-e9e9-4a14-9536-944056d</title>
				<path d="M10.38 120.29 A14.6772 14.6173 0 1 1 25.06 105.67 A14.6772 14.6173 0 0 1 10.38 120.29 Z" class="st2"/>
			</g>
			<g id="shape211-8" transform="translate(13.7464,-0.752825)">
				<title>path25</title>
				<path d="M14.6 91.12 A15.3701 15.3074 -180 0 0 5.81 118.94 A15.3701 15.3074 -180 1 0 14.6 91.12 ZM28.58 106.43 A11.874
							 11.8256 0 0 1 28.58 108.25 A16.7559 16.6876 -180 0 0 26.13 107.24 A2.89764 2.88582 -180 0 0 22.03 104.92
							 A16.7559 16.6876 -180 0 0 14.16 98.65 A3.14961 3.13677 -180 0 0 13.37 97.14 A15.2756 15.2133 0 0 1 19.42
							 93.31 A14.0472 13.99 0 0 1 28.58 106.43 ZM22.95 117.59 A13.7638 13.7077 0 0 1 15.67 120.29 A15.0551
							 14.9937 0 0 1 10.76 114.86 A2.77165 2.76035 -180 0 0 11.67 113.58 A2.83465 2.82309 -180 0 0 11.45 111.16
							 A15.748 15.6838 0 0 1 20.24 108.03 A2.89764 2.88582 -180 0 0 22.1 110.28 A3.33858 3.32497 -180 0 0 22.82
							 110.44 A15.748 15.6838 0 0 1 22.95 117.59 ZM10.13 101.91 A2.89764 2.88582 -180 0 0 13.81 100.18 A15.0866
							 15.0251 0 0 1 20.9 105.8 A3.59055 3.57591 -180 0 0 20.52 106.49 A17.2283 17.1581 -180 0 0 10.41 110.13
							 L9.97 109.91 A2.33071 2.32121 -180 0 0 9.09 109.72 A15.2441 15.1819 0 0 1 10.13 101.78 L10.13 101.91
							 ZM7.73 115.33 L7.99 115.33 A2.64567 2.63488 -180 0 0 9.47 115.33 A16.189 16.123 -180 0 0 13.34 120.29
							 A13.9213 13.8645 0 0 1 6.44 117.75 A16.126 16.0602 0 0 1 7.73 115.21 L7.73 115.33 ZM14.6 92.47 A15.4331
							 15.3702 0 0 1 17.03 92.69 A16.2835 16.2171 -180 0 0 12.02 96.36 A2.89764 2.88582 -180 0 0 8.87 97.55
							 L8.05 97.55 A17.3543 17.2836 -180 0 0 3.29 98.24 A14.1102 14.0527 0 0 1 14.6 92.47 ZM0.62 106.43 A13.8898
							 13.8331 0 0 1 2.13 100.15 A15.5591 15.4956 0 0 1 8.43 98.96 A3.14961 3.13677 -180 0 0 9.12 101 A16.7559
							 16.6876 -180 0 0 7.7 110.13 A2.89764 2.88582 -180 0 0 6.25 111.73 A2.96063 2.94856 -180 0 0 6.6 114.39
							 A17.3858 17.3149 -180 0 0 5.28 116.9 A13.8898 13.8331 0 0 1 0.62 106.43 ZM24.62 116.15 C24.62 115.49
							 24.62 114.83 24.62 114.14 A16.9449 16.8758 -180 0 0 24.27 110.13 A2.77165 2.76035 -180 0 0 25.75 108.68
							 A16.5354 16.468 0 0 1 28.17 109.72 A13.7638 13.7077 0 0 1 24.62 116.15 Z" class="st3"/>
			</g>
		</g>
	</g>
</svg>
